X: 51
T: Pour entretenir mes amours
N: Derived from Bus3047-Pour_entretenir_mes_amours.krn
C: Antoine Busnoys
%%abc-version 2.0
%%abcx-abcm2ps-target-version 5.9.1 (29 Sep 2008)
%%abc-creator hum2abc beta
%%abcx-conversion-date 2019/02/16 20:26:07
%%abc-edited-by Jesse Rodin
%%abc-edited-by Chris Gage 02-10-2015
%%abcx-initial-encoding-date 2015/02/20/
%%humdrum-veritas 1366694369
%%humdrum-veritas-data 3696159864
%%linebreak <none>
%%barnumbers 0
L: 1/4
M: 2/1
Q: 1/2=120
V: 1 clef=treble
V: 2 clef=treble
V: 3 clef=bass
K: C
[V:1] z8 | 
[V:2] z8 | 
[V:3] D6F2- & D,8 | 
[V:1] z8 | 
[V:2] z8 | 
[V:3] FED4CB, & D,4D,4 | 
[V:1] z8 | 
[V:2] z8 | 
[V:3] C2D4^C2 & E,8 | 
[V:1] z8 | 
[V:2] D8 | 
[V:3] D8 & D,6F,2- | 
[V:1] z8 | 
[V:2] D4D4 | 
[V:3] F,E,D,4C,B,, | 
[V:1] z8 | 
[V:2] E8 | 
[V:3] C,2D,4^C,2 | 
[V:1] d8 | 
[V:2] D6F2- | 
[V:3] D,8- | 
[V:1] d4d4 | 
[V:2] FED4CB, | 
[V:3] D,8 | 
[V:1] e8 | 
[V:2] C2D4^C2 | 
[V:3] A,8 | 
[V:1] d6f2- | 
[V:2] D6A2- | 
[V:3] D,8- | 
[V:1] fed4cB | 
[V:2] AGF4ED | 
[V:3] D,8 | 
[V:1] c2d4^c2 | 
[V:2] E2F3GA2 | 
[V:3] z8 | 
[V:1] d2f3efg | 
[V:2] _B2A3GFE | 
[V:3] z8 | 
[V:1] f2ed^c3B | 
[V:2] D2F2E4 | 
[V:3] D,4A,4 | 
[V:1] d8 | 
[V:2] D2z2D4 | 
[V:3] _B,3A,F,2G,2- | 
[V:1] z8 | 
[V:2] E4E4 | 
[V:3] G,F,E,D,^C,3B,, | 
[V:1] z4d4 | 
[V:2] D4B,4 | 
[V:3] D,4z4 | 
[V:1] e4e4 | 
[V:2] C4C4 | 
[V:3] A,8 | 
[V:1] d4B4 | 
[V:2] D6E2- | 
[V:3] _B,4G,4 | 
[V:1] c4c4 | 
[V:2] ECF3GA2 | 
[V:3] A,4A,4 | 
[V:1] d2cBA2c2- | 
[V:2] B2ABc2A2- | 
[V:3] G,4F,3E, | 
[V:1] c2B2A2GF | 
[V:2] A2G2F2ED | 
[V:3] F,2G,2D,4 | 
[V:1] E8 | 
[V:2] ^C4z4 | 
[V:3] A,4A,2A,2- | 
[V:1] z4E4 | 
[V:2] ^C8 | 
[V:3] A,2G,F,E,4 | 
[V:1] F6E2 | 
[V:2] D6C2 | 
[V:3] D,2F,3G,A,2 | 
[V:1] F4G4 | 
[V:2] D4E4 | 
[V:3] F,2E,D,C,2C2- | 
[V:1] E4D4 | 
[V:2] C4D2F2- | 
[V:3] C2A,2_B,3A, | 
[V:1] z4c4 | 
[V:2] F2G2E4 | 
[V:3] _B,2G,2A,4 | 
[V:1] d2f4g2 | 
[V:2] D4z4 | 
[V:3] _B,3CD2G,2 | 
[V:1] e4d2a2- | 
[V:2] C4D3E | 
[V:3] A,4D,4 | 
[V:1] age2f2g2- | 
[V:2] F2G2A2_B2- | 
[V:3] z8 | 
[V:1] gfedc2d2- | 
[V:2] BAGFE2F2- | 
[V:3] G,4A,2F,2- | 
[V:1] d2c2d3e | 
[V:2] F2E2F3G | 
[V:3] F,G,A,2D,4 | 
[V:1] c4z4 | 
[V:2] E4z4 | 
[V:3] A,4z4 | 
[V:1] d8 | 
[V:2] D8 | 
[V:3] D,4F,4 | 
[V:1] e4f4- | 
[V:2] C4D4- | 
[V:3] E,4D,4 | 
[V:1] f2e2d4 | 
[V:2] D2C2B,4 | 
[V:3] F,4G,4 | 
[V:1] f4e4- | 
[V:2] A,4A,4 | 
[V:3] A,4C4- | 
[V:1] e4c4 | 
[V:2] A8 | 
[V:3] C2B,2A,4 | 
[V:1] d4c4- | 
[V:2] B4c4- | 
[V:3] G,4A,4 | 
[V:1] c4f4- | 
[V:2] c2B2A4 | 
[V:3] F,8 | 
[V:1] f2e2e2d2 | 
[V:2] G8 | 
[V:3] C8 | 
[V:1] f8- | 
[V:2] F4z4 | 
[V:3] F,8 | 
[V:1] f8 | 
[V:2] D8 | 
[V:3] z4_B,4 | 
[V:1] z8 | 
[V:2] E4F4- | 
[V:3] A,6G,2 | 
[V:1] d8 | 
[V:2] F2E2D4 | 
[V:3] F,4G,4 | 
[V:1] e4f4- | 
[V:2] C4D4- | 
[V:3] E,4D,4 | 
[V:1] f2e2d3A | 
[V:2] D4F4 | 
[V:3] D8 | 
[V:1] d2^c4B2 | 
[V:2] E8 | 
[V:3] A,8 | 
[V:1] d4e2f2- | 
[V:2] D4C2D2- | 
[V:3] D,4z4 | 
[V:1] f2edc3B | 
[V:2] D2F2E2A2- | 
[V:3] D,4A,4- | 
[V:1] c2d4f2 | 
[V:2] AGFEF2ED | 
[V:3] A,2B,6 | 
[V:1] e3fg2a2- | 
[V:2] C3DE2F2- | 
[V:3] C3B,/A,/G,2F,2 | 
[V:1] agfef2e2- | 
[V:2] FGA3Bc2- | 
[V:3] D,2D4A,2 | 
[V:1] edd4c2 | 
[V:2] c2F2E4 | 
[V:3] C2D2A,3G, | 
[V:1] d2f2e2g2- | 
[V:2] D2A4GA | 
[V:3] F,2D,2C4 | 
[V:1] gfed^c3B | 
[V:2] BAGFE3D | 
[V:3] D4A,4 | 
[V:1] d8 |]  
[V:2] D8 |]  
[V:3] D,8 |]  



